X: 3
T: The Irish Girl
R: reel
M: 4/4
L: 1/8
K: Dmaj
|: F2FE DEFD | EG G2 EG G2 | F2FE DEFA | (3Bcd ec dBAG |
F2FE DEFD | EG G2 EG G2 | F2FE DEFA | cdec d3e :|
|:fd d2 dfaf | edcd efge | fddc dfaf | gfeg fd (3ddd |
fddc df a2 | edcd efge | dfaf g2ag | faeg fdd2 :|


Tune 844	Setting 844

